X:4091
L:1/8
Q:1/4=120
M:2/2
K:G
"^Fast" (E/F/E) | DEFD GFGA |"^*" BGBd gBAG | FGEF DEFG | AcAF GFEF | DEFD G2 GA | BGBd efge | 
 dcBA GFGA |{c} B2 G2 G2 :: g2 |{a} gfga b2 ag | fdfg aagf | edef gfed | Bdef e2 ge | dBGB d2 d2 | 
 edef g2 ge | dcBA GFGA | (B/c/B) G2 G2 :|"^Substitution""^*" BGBd cBAG | (3FGF (3EFE DEFG ||

